assets/1. F-P/Money bag/Color/Money.Bag-color.svg

<svg width="100%" height="100%" viewBox="0 0 32 32" fill="none" xmlns="http://www.w3.org/2000/svg">
<g filter="url(#filter0_i_18_21307)">
<path d="M4.44214 20.8828C4.44214 14.5315 9.59086 9.38281 15.9421 9.38281H16.5046C22.8559 9.38281 28.0046 14.5315 28.0046 20.8828V21.1687C28.0046 26.0289 24.0647 29.9688 19.2046 29.9688H13.2421C8.38203 29.9688 4.44214 26.0289 4.44214 21.1687V20.8828Z" fill="url(#paint0_radial_18_21307)"/>
<path d="M4.44214 20.8828C4.44214 14.5315 9.59086 9.38281 15.9421 9.38281H16.5046C22.8559 9.38281 28.0046 14.5315 28.0046 20.8828V21.1687C28.0046 26.0289 24.0647 29.9688 19.2046 29.9688H13.2421C8.38203 29.9688 4.44214 26.0289 4.44214 21.1687V20.8828Z" fill="url(#paint1_radial_18_21307)"/>
</g>
<path d="M4.44214 20.8828C4.44214 14.5315 9.59086 9.38281 15.9421 9.38281H16.5046C22.8559 9.38281 28.0046 14.5315 28.0046 20.8828V21.1687C28.0046 26.0289 24.0647 29.9688 19.2046 29.9688H13.2421C8.38203 29.9688 4.44214 26.0289 4.44214 21.1687V20.8828Z" fill="url(#paint2_radial_18_21307)"/>
<path d="M4.44214 20.8828C4.44214 14.5315 9.59086 9.38281 15.9421 9.38281H16.5046C22.8559 9.38281 28.0046 14.5315 28.0046 20.8828V21.1687C28.0046 26.0289 24.0647 29.9688 19.2046 29.9688H13.2421C8.38203 29.9688 4.44214 26.0289 4.44214 21.1687V20.8828Z" fill="url(#paint3_radial_18_21307)"/>
<g filter="url(#filter1_ii_18_21307)">
<path d="M12.1611 4.69522C12.6316 5.49637 13.316 6.52405 14.1961 7.36719H18.2508C19.1308 6.52405 19.8153 5.49637 20.2857 4.69522C20.5283 4.2821 20.3605 3.75485 19.9335 3.53757C19.6129 3.37436 19.2368 3.45184 18.9259 3.633C18.2243 4.04178 17.8191 3.55988 17.2 2.61328C16.8886 2.13733 16.4138 2.11197 16.2234 2.10938C16.033 2.11197 15.5582 2.13733 15.2469 2.61328C14.6277 3.55988 14.2225 4.04178 13.5209 3.633C13.21 3.45184 12.834 3.37436 12.5133 3.53757C12.0863 3.75485 11.9185 4.2821 12.1611 4.69522Z" fill="url(#paint4_linear_18_21307)"/>
</g>
<g filter="url(#filter2_f_18_21307)">
<path d="M16.8 14.2578C16.8 13.8159 16.4418 13.4578 16 13.4578C15.5581 13.4578 15.2 13.8159 15.2 14.2578V15.0128C15.2 15.1917 15.0802 15.3466 14.9131 15.4105C14.636 15.5164 14.3593 15.6633 14.1051 15.8537C13.4676 16.3308 12.9485 17.1027 12.9485 18.1796C12.9485 19.2397 13.4263 20.0079 14.0751 20.5001C14.6933 20.9691 15.4395 21.1722 16.0355 21.2264C16.2771 21.2483 16.6377 21.3125 16.9365 21.501C17.1946 21.6638 17.4521 21.9431 17.5065 22.5411C17.5585 23.1135 17.326 23.4531 17.0226 23.6844C16.6724 23.9514 16.2658 24.0359 16.1626 24.0359C15.9217 24.0359 15.5086 24.0039 15.1594 23.8144C14.8654 23.6548 14.5485 23.3526 14.4829 22.6164C14.4436 22.1763 14.0551 21.8514 13.615 21.8906C13.1749 21.9298 12.85 22.3184 12.8892 22.7585C13.0033 24.0379 13.6395 24.8099 14.3962 25.2206C14.5633 25.3113 14.7323 25.3824 14.8973 25.438C15.0724 25.497 15.2 25.6553 15.2 25.8401V26.5234C15.2 26.9652 15.5581 27.3234 16 27.3234C16.4418 27.3234 16.8 26.9652 16.8 26.5234V25.8473C16.8 25.6665 16.922 25.5103 17.0916 25.4479C17.3923 25.3371 17.706 25.1753 17.9925 24.9569C18.6573 24.4502 19.2099 23.6063 19.0999 22.3963C18.9981 21.2756 18.436 20.6014 17.7798 20.1874C17.1642 19.7992 16.4901 19.6711 16.1548 19.6406C15.2464 19.5935 14.5485 19.0921 14.5485 18.1796C14.5485 17.6784 14.7473 17.3105 15.0422 17.0898C15.6509 16.5742 16.6862 16.6443 17.1751 17.2923C17.3915 17.5791 17.4884 17.8952 17.5103 18.1796C17.5441 18.6201 17.9252 18.9713 18.3657 18.9374C18.8062 18.9036 19.1348 18.5588 19.1009 18.1183C19.0655 17.6579 18.9132 16.984 18.4478 16.3671C18.1438 15.9643 17.5694 15.578 17.0971 15.3835C16.9267 15.3133 16.8 15.1542 16.8 14.97V14.2578Z" fill="url(#paint5_linear_18_21307)"/>
</g>
<g filter="url(#filter3_ii_18_21307)">
<path d="M16.9999 14.1562C16.9999 13.7144 16.6417 13.3562 16.1999 13.3562C15.7581 13.3562 15.3999 13.7144 15.3999 14.1562V14.9112C15.3999 15.0901 15.2801 15.2451 15.113 15.309C14.8359 15.4149 14.5592 15.5618 14.305 15.7521C13.6676 16.2293 13.1485 17.0011 13.1485 18.0781C13.1485 19.1381 13.6262 19.9063 14.2751 20.3986C14.8933 20.8676 15.6394 21.0706 16.2354 21.1248C16.4771 21.1468 16.8377 21.2109 17.1365 21.3994C17.3946 21.5622 17.6521 21.8415 17.7065 22.4396C17.7585 23.0119 17.526 23.3516 17.2225 23.5829C16.8723 23.8498 16.4658 23.9343 16.3625 23.9343C16.1216 23.9343 15.7086 23.9024 15.3594 23.7129C15.0654 23.5533 14.7485 23.251 14.6828 22.5149C14.6436 22.0748 14.255 21.7498 13.815 21.789C13.3749 21.8283 13.0499 22.2168 13.0891 22.6569C13.2032 23.9364 13.8394 24.7084 14.5962 25.1191C14.7633 25.2098 14.9323 25.2808 15.0973 25.3364C15.2724 25.3955 15.3999 25.5538 15.3999 25.7386V26.4218C15.3999 26.8637 15.7581 27.2218 16.1999 27.2218C16.6417 27.2218 16.9999 26.8637 16.9999 26.4218V25.7457C16.9999 25.565 17.122 25.4088 17.2916 25.3463C17.5922 25.2355 17.906 25.0737 18.1925 24.8554C18.8572 24.3486 19.4099 23.5047 19.2999 22.2947C19.198 21.174 18.636 20.4998 17.9797 20.0859C17.3642 19.6976 16.69 19.5695 16.3547 19.539C15.4464 19.492 14.7485 18.9905 14.7485 18.0781C14.7485 17.5769 14.9473 17.209 15.2422 16.9882C15.8508 16.4726 16.8862 16.5427 17.3751 17.1908C17.5914 17.4775 17.6883 17.7937 17.7102 18.0781C17.7441 18.5186 18.1251 18.8698 18.5657 18.8359C19.0062 18.802 19.3347 18.4572 19.3008 18.0167C19.2654 17.5563 19.1131 16.8825 18.6477 16.2656C18.3437 15.8627 17.7694 15.4764 17.2971 15.2819C17.1267 15.2118 16.9999 15.0527 16.9999 14.8684V14.1562Z" fill="url(#paint6_linear_18_21307)"/>
</g>
<g filter="url(#filter4_i_18_21307)">
<rect x="13.3328" y="7.36719" width="5.73438" height="2.10938" rx="1.05078" fill="url(#paint7_linear_18_21307)"/>
<rect x="13.3328" y="7.36719" width="5.73438" height="2.10938" rx="1.05078" fill="url(#paint8_radial_18_21307)"/>
</g>
<rect x="13.3328" y="7.36719" width="5.73438" height="2.10938" rx="1.05078" fill="url(#paint9_radial_18_21307)"/>
<defs>
<filter id="filter0_i_18_21307" x="4.44214" y="7.88281" width="24.5625" height="22.0859" filterUnits="userSpaceOnUse" color-interpolation-filters="sRGB">
<feFlood flood-opacity="0" result="BackgroundImageFix"/>
<feBlend mode="normal" in="SourceGraphic" in2="BackgroundImageFix" result="shape"/>
<feColorMatrix in="SourceAlpha" type="matrix" values="0 0 0 0 0 0 0 0 0 0 0 0 0 0 0 0 0 0 127 0" result="hardAlpha"/>
<feOffset dx="1" dy="-1.5"/>
<feGaussianBlur stdDeviation="1.75"/>
<feComposite in2="hardAlpha" operator="arithmetic" k2="-1" k3="1"/>
<feColorMatrix type="matrix" values="0 0 0 0 0.713726 0 0 0 0 0.321569 0 0 0 0 0.211765 0 0 0 1 0"/>
<feBlend mode="normal" in2="shape" result="effect1_innerShadow_18_21307"/>
</filter>
<filter id="filter1_ii_18_21307" x="11.8493" y="1.85938" width="8.64821" height="5.70781" filterUnits="userSpaceOnUse" color-interpolation-filters="sRGB">
<feFlood flood-opacity="0" result="BackgroundImageFix"/>
<feBlend mode="normal" in="SourceGraphic" in2="BackgroundImageFix" result="shape"/>
<feColorMatrix in="SourceAlpha" type="matrix" values="0 0 0 0 0 0 0 0 0 0 0 0 0 0 0 0 0 0 127 0" result="hardAlpha"/>
<feOffset dx="-0.2" dy="0.2"/>
<feGaussianBlur stdDeviation="0.15"/>
<feComposite in2="hardAlpha" operator="arithmetic" k2="-1" k3="1"/>
<feColorMatrix type="matrix" values="0 0 0 0 1 0 0 0 0 0.92549 0 0 0 0 0.403922 0 0 0 1 0"/>
<feBlend mode="normal" in2="shape" result="effect1_innerShadow_18_21307"/>
<feColorMatrix in="SourceAlpha" type="matrix" values="0 0 0 0 0 0 0 0 0 0 0 0 0 0 0 0 0 0 127 0" result="hardAlpha"/>
<feOffset dx="0.1" dy="-0.25"/>
<feGaussianBlur stdDeviation="0.25"/>
<feComposite in2="hardAlpha" operator="arithmetic" k2="-1" k3="1"/>
<feColorMatrix type="matrix" values="0 0 0 0 0.788235 0 0 0 0 0.364706 0 0 0 0 0.12549 0 0 0 1 0"/>
<feBlend mode="normal" in2="effect1_innerShadow_18_21307" result="effect2_innerShadow_18_21307"/>
</filter>
<filter id="filter2_f_18_21307" x="12.586" y="13.1578" width="6.82797" height="14.4657" filterUnits="userSpaceOnUse" color-interpolation-filters="sRGB">
<feFlood flood-opacity="0" result="BackgroundImageFix"/>
<feBlend mode="normal" in="SourceGraphic" in2="BackgroundImageFix" result="shape"/>
<feGaussianBlur stdDeviation="0.15" result="effect1_foregroundBlur_18_21307"/>
</filter>
<filter id="filter3_ii_18_21307" x="12.9859" y="13.1562" width="6.47797" height="14.2157" filterUnits="userSpaceOnUse" color-interpolation-filters="sRGB">
<feFlood flood-opacity="0" result="BackgroundImageFix"/>
<feBlend mode="normal" in="SourceGraphic" in2="BackgroundImageFix" result="shape"/>
<feColorMatrix in="SourceAlpha" type="matrix" values="0 0 0 0 0 0 0 0 0 0 0 0 0 0 0 0 0 0 127 0" result="hardAlpha"/>
<feOffset dx="0.15" dy="-0.2"/>
<feGaussianBlur stdDeviation="0.15"/>
<feComposite in2="hardAlpha" operator="arithmetic" k2="-1" k3="1"/>
<feColorMatrix type="matrix" values="0 0 0 0 0.352941 0 0 0 0 0.168627 0 0 0 0 0.188235 0 0 0 1 0"/>
<feBlend mode="normal" in2="shape" result="effect1_innerShadow_18_21307"/>
<feColorMatrix in="SourceAlpha" type="matrix" values="0 0 0 0 0 0 0 0 0 0 0 0 0 0 0 0 0 0 127 0" result="hardAlpha"/>
<feOffset dx="-0.1" dy="0.15"/>
<feGaussianBlur stdDeviation="0.11"/>
<feComposite in2="hardAlpha" operator="arithmetic" k2="-1" k3="1"/>
<feColorMatrix type="matrix" values="0 0 0 0 0.670588 0 0 0 0 0.458824 0 0 0 0 0.403922 0 0 0 1 0"/>
<feBlend mode="normal" in2="effect1_innerShadow_18_21307" result="effect2_innerShadow_18_21307"/>
</filter>
<filter id="filter4_i_18_21307" x="13.3328" y="6.76719" width="5.73438" height="2.70938" filterUnits="userSpaceOnUse" color-interpolation-filters="sRGB">
<feFlood flood-opacity="0" result="BackgroundImageFix"/>
<feBlend mode="normal" in="SourceGraphic" in2="BackgroundImageFix" result="shape"/>
<feColorMatrix in="SourceAlpha" type="matrix" values="0 0 0 0 0 0 0 0 0 0 0 0 0 0 0 0 0 0 127 0" result="hardAlpha"/>
<feOffset dy="-0.6"/>
<feGaussianBlur stdDeviation="0.5"/>
<feComposite in2="hardAlpha" operator="arithmetic" k2="-1" k3="1"/>
<feColorMatrix type="matrix" values="0 0 0 0 0.388235 0 0 0 0 0.223529 0 0 0 0 0.109804 0 0 0 1 0"/>
<feBlend mode="normal" in2="shape" result="effect1_innerShadow_18_21307"/>
</filter>
<radialGradient id="paint0_radial_18_21307" cx="0" cy="0" r="1" gradientUnits="userSpaceOnUse" gradientTransform="translate(19.4421 11.3125) rotate(100.07) scale(18.4086 19.2809)">
<stop stop-color="#F6C93B"/>
<stop offset="1" stop-color="#E88340"/>
</radialGradient>
<radialGradient id="paint1_radial_18_21307" cx="0" cy="0" r="1" gradientUnits="userSpaceOnUse" gradientTransform="translate(24.0671 14.1875) rotate(133.199) scale(7.03035 11.7786)">
<stop stop-color="#FFE065"/>
<stop offset="1" stop-color="#FFE065" stop-opacity="0"/>
</radialGradient>
<radialGradient id="paint2_radial_18_21307" cx="0" cy="0" r="1" gradientUnits="userSpaceOnUse" gradientTransform="translate(6.06714 14.1875) rotate(31.6513) scale(5.35972 13.2833)">
<stop offset="0.187216" stop-color="#FFA45D"/>
<stop offset="1" stop-color="#FFA45D" stop-opacity="0"/>
</radialGradient>
<radialGradient id="paint3_radial_18_21307" cx="0" cy="0" r="1" gradientUnits="userSpaceOnUse" gradientTransform="translate(16.2234 25.25) rotate(-90) scale(16.3125 24.5772)">
<stop offset="0.928161" stop-color="#F3BD46" stop-opacity="0"/>
<stop offset="0.979885" stop-color="#917011"/>
</radialGradient>
<linearGradient id="paint4_linear_18_21307" x1="17.4773" y1="3.89063" x2="16.2234" y2="7.36719" gradientUnits="userSpaceOnUse">
<stop stop-color="#F3C048"/>
<stop offset="1" stop-color="#E67A41"/>
</linearGradient>
<linearGradient id="paint5_linear_18_21307" x1="16" y1="13.789" x2="16" y2="26.6015" gradientUnits="userSpaceOnUse">
<stop stop-color="#A6782C"/>
<stop offset="1" stop-color="#B95940"/>
</linearGradient>
<linearGradient id="paint6_linear_18_21307" x1="19.6609" y1="21.8749" x2="13.0859" y2="21.8749" gradientUnits="userSpaceOnUse">
<stop stop-color="#9D6360"/>
<stop offset="1" stop-color="#724A4D"/>
</linearGradient>
<linearGradient id="paint7_linear_18_21307" x1="14.1296" y1="8.42188" x2="19.0671" y2="8.42188" gradientUnits="userSpaceOnUse">
<stop stop-color="#834B41"/>
<stop offset="1" stop-color="#735854"/>
</linearGradient>
<radialGradient id="paint8_radial_18_21307" cx="0" cy="0" r="1" gradientUnits="userSpaceOnUse" gradientTransform="translate(18.0671 8.09375) rotate(-180) scale(1.86719 1.40625)">
<stop stop-color="#7D5A54"/>
<stop offset="1" stop-color="#7D5A54" stop-opacity="0"/>
</radialGradient>
<radialGradient id="paint9_radial_18_21307" cx="0" cy="0" r="1" gradientUnits="userSpaceOnUse" gradientTransform="translate(18.3171 8.42187) rotate(180) scale(5.53125 4.43103)">
<stop offset="0.694915" stop-color="#B3624D" stop-opacity="0"/>
<stop offset="0.960452" stop-color="#B3624D"/>
</radialGradient>
</defs>
</svg>

<svg width="100%" height="100%" viewBox="0 0 32 32" xmlns="http://www.w3.org/2000/svg"><g filter="url(#a)"><path fill="url(#b)" d="M4.442 20.883c0-6.351 5.149-11.5 11.5-11.5h.563c6.35 0 11.5 5.149 11.5 11.5v.286a8.8 8.8 0 0 1-8.8 8.8h-5.963a8.8 8.8 0 0 1-8.8-8.8z"/><path fill="url(#c)" d="M4.442 20.883c0-6.351 5.149-11.5 11.5-11.5h.563c6.35 0 11.5 5.149 11.5 11.5v.286a8.8 8.8 0 0 1-8.8 8.8h-5.963a8.8 8.8 0 0 1-8.8-8.8z"/></g><path fill="url(#d)" d="M4.442 20.883c0-6.351 5.149-11.5 11.5-11.5h.563c6.35 0 11.5 5.149 11.5 11.5v.286a8.8 8.8 0 0 1-8.8 8.8h-5.963a8.8 8.8 0 0 1-8.8-8.8z"/><path fill="url(#e)" d="M4.442 20.883c0-6.351 5.149-11.5 11.5-11.5h.563c6.35 0 11.5 5.149 11.5 11.5v.286a8.8 8.8 0 0 1-8.8 8.8h-5.963a8.8 8.8 0 0 1-8.8-8.8z"/><g filter="url(#f)"><path fill="url(#g)" d="M12.161 4.695c.47.801 1.155 1.829 2.035 2.672h4.055c.88-.843 1.564-1.87 2.035-2.672a.83.83 0 0 0-.353-1.157c-.32-.164-.696-.086-1.007.095-.702.409-1.107-.073-1.726-1.02-.311-.476-.786-.501-.977-.504-.19.003-.665.028-.976.504-.62.947-1.024 1.429-1.726 1.02-.311-.181-.687-.259-1.008-.095a.83.83 0 0 0-.352 1.157"/></g><g filter="url(#h)"><path fill="url(#i)" d="M16.8 14.258a.8.8 0 1 0-1.6 0v.755c0 .179-.12.334-.287.398a3.3 3.3 0 0 0-.808.443 2.83 2.83 0 0 0-1.157 2.326c0 1.06.478 1.828 1.127 2.32.618.47 1.365.672 1.96.726.242.022.603.087.901.275.259.163.516.442.57 1.04.052.572-.18.912-.483 1.143-.35.267-.757.352-.86.352-.241 0-.654-.032-1.004-.222-.294-.16-.61-.461-.676-1.198a.8.8 0 0 0-1.594.143c.114 1.279.75 2.05 1.507 2.462q.252.134.501.217a.43.43 0 0 1 .303.402v.683a.8.8 0 1 0 1.6 0v-.676c0-.18.122-.337.292-.4.3-.11.614-.272.9-.49.665-.507 1.218-1.35 1.108-2.56-.102-1.121-.664-1.796-1.32-2.21a3.9 3.9 0 0 0-1.625-.546c-.909-.047-1.607-.549-1.607-1.461 0-.502.2-.87.494-1.09.609-.516 1.644-.446 2.133.202.216.287.313.603.335.888.034.44.415.791.856.757.44-.033.769-.378.735-.819a3.36 3.36 0 0 0-.653-1.75c-.304-.404-.879-.79-1.35-.984a.46.46 0 0 1-.298-.414z"/></g><g filter="url(#j)"><path fill="url(#k)" d="M17 14.156a.8.8 0 0 0-1.6 0v.755c0 .18-.12.334-.287.398a3.4 3.4 0 0 0-.808.443 2.83 2.83 0 0 0-1.156 2.326c0 1.06.477 1.828 1.126 2.32.618.47 1.364.673 1.96.727.242.022.603.086.902.274.258.163.515.442.57 1.04.052.573-.181.913-.485 1.144-.35.267-.756.351-.86.351-.24 0-.653-.032-1.003-.221-.294-.16-.61-.462-.676-1.198a.8.8 0 1 0-1.594.142c.114 1.28.75 2.051 1.507 2.462q.252.135.501.217c.175.06.303.218.303.403v.683a.8.8 0 1 0 1.6 0v-.676c0-.181.122-.337.292-.4.3-.11.614-.272.9-.49.665-.507 1.218-1.351 1.108-2.561-.102-1.121-.664-1.795-1.32-2.21a3.9 3.9 0 0 0-1.625-.546c-.909-.047-1.607-.549-1.607-1.46 0-.502.2-.87.494-1.09.609-.516 1.644-.446 2.133.202.216.287.313.603.335.887.034.44.415.792.856.758.44-.034.769-.379.735-.82a3.36 3.36 0 0 0-.653-1.75c-.304-.403-.879-.79-1.35-.984a.46.46 0 0 1-.298-.414z"/></g><g filter="url(#l)"><rect width="5.734" height="2.109" x="13.333" y="7.367" fill="url(#m)" rx="1.051"/><rect width="5.734" height="2.109" x="13.333" y="7.367" fill="url(#n)" rx="1.051"/></g><rect width="5.734" height="2.109" x="13.333" y="7.367" fill="url(#o)" rx="1.051"/><defs><radialGradient id="b" cx="0" cy="0" r="1" gradientTransform="rotate(100.07 4.98 13.803)scale(18.4086 19.2809)" gradientUnits="userSpaceOnUse"><stop stop-color="#F6C93B"/><stop offset="1" stop-color="#E88340"/></radialGradient><radialGradient id="c" cx="0" cy="0" r="1" gradientTransform="rotate(133.199 8.964 12.301)scale(7.03035 11.7786)" gradientUnits="userSpaceOnUse"><stop stop-color="#FFE065"/><stop offset="1" stop-color="#FFE065" stop-opacity="0"/></radialGradient><radialGradient id="d" cx="0" cy="0" r="1" gradientTransform="matrix(4.5625 2.8125 -6.97039 11.3075 6.067 14.188)" gradientUnits="userSpaceOnUse"><stop offset=".187" stop-color="#FFA45D"/><stop offset="1" stop-color="#FFA45D" stop-opacity="0"/></radialGradient><radialGradient id="e" cx="0" cy="0" r="1" gradientTransform="matrix(0 -16.3125 24.5772 0 16.223 25.25)" gradientUnits="userSpaceOnUse"><stop offset=".928" stop-color="#F3BD46" stop-opacity="0"/><stop offset=".98" stop-color="#917011"/></radialGradient><radialGradient id="n" cx="0" cy="0" r="1" gradientTransform="matrix(-1.86719 0 0 -1.40625 18.067 8.094)" gradientUnits="userSpaceOnUse"><stop stop-color="#7D5A54"/><stop offset="1" stop-color="#7D5A54" stop-opacity="0"/></radialGradient><radialGradient id="o" cx="0" cy="0" r="1" gradientTransform="matrix(-5.53125 0 0 -4.43103 18.317 8.422)" gradientUnits="userSpaceOnUse"><stop offset=".695" stop-color="#B3624D" stop-opacity="0"/><stop offset=".96" stop-color="#B3624D"/></radialGradient><filter id="a" width="24.563" height="22.086" x="4.442" y="7.883" color-interpolation-filters="sRGB" filterUnits="userSpaceOnUse"><feFlood flood-opacity="0" result="BackgroundImageFix"/><feBlend in="SourceGraphic" in2="BackgroundImageFix" result="shape"/><feColorMatrix in="SourceAlpha" result="hardAlpha" values="0 0 0 0 0 0 0 0 0 0 0 0 0 0 0 0 0 0 127 0"/><feOffset dx="1" dy="-1.5"/><feGaussianBlur stdDeviation="1.75"/><feComposite in2="hardAlpha" k2="-1" k3="1" operator="arithmetic"/><feColorMatrix values="0 0 0 0 0.713726 0 0 0 0 0.321569 0 0 0 0 0.211765 0 0 0 1 0"/><feBlend in2="shape" result="effect1_innerShadow_18_21307"/></filter><filter id="f" width="8.648" height="5.708" x="11.849" y="1.859" color-interpolation-filters="sRGB" filterUnits="userSpaceOnUse"><feFlood flood-opacity="0" result="BackgroundImageFix"/><feBlend in="SourceGraphic" in2="BackgroundImageFix" result="shape"/><feColorMatrix in="SourceAlpha" result="hardAlpha" values="0 0 0 0 0 0 0 0 0 0 0 0 0 0 0 0 0 0 127 0"/><feOffset dx="-.2" dy=".2"/><feGaussianBlur stdDeviation=".15"/><feComposite in2="hardAlpha" k2="-1" k3="1" operator="arithmetic"/><feColorMatrix values="0 0 0 0 1 0 0 0 0 0.92549 0 0 0 0 0.403922 0 0 0 1 0"/><feBlend in2="shape" result="effect1_innerShadow_18_21307"/><feColorMatrix in="SourceAlpha" result="hardAlpha" values="0 0 0 0 0 0 0 0 0 0 0 0 0 0 0 0 0 0 127 0"/><feOffset dx=".1" dy="-.25"/><feGaussianBlur stdDeviation=".25"/><feComposite in2="hardAlpha" k2="-1" k3="1" operator="arithmetic"/><feColorMatrix values="0 0 0 0 0.788235 0 0 0 0 0.364706 0 0 0 0 0.12549 0 0 0 1 0"/><feBlend in2="effect1_innerShadow_18_21307" result="effect2_innerShadow_18_21307"/></filter><filter id="h" width="6.828" height="14.466" x="12.586" y="13.158" color-interpolation-filters="sRGB" filterUnits="userSpaceOnUse"><feFlood flood-opacity="0" result="BackgroundImageFix"/><feBlend in="SourceGraphic" in2="BackgroundImageFix" result="shape"/><feGaussianBlur result="effect1_foregroundBlur_18_21307" stdDeviation=".15"/></filter><filter id="j" width="6.478" height="14.216" x="12.986" y="13.156" color-interpolation-filters="sRGB" filterUnits="userSpaceOnUse"><feFlood flood-opacity="0" result="BackgroundImageFix"/><feBlend in="SourceGraphic" in2="BackgroundImageFix" result="shape"/><feColorMatrix in="SourceAlpha" result="hardAlpha" values="0 0 0 0 0 0 0 0 0 0 0 0 0 0 0 0 0 0 127 0"/><feOffset dx=".15" dy="-.2"/><feGaussianBlur stdDeviation=".15"/><feComposite in2="hardAlpha" k2="-1" k3="1" operator="arithmetic"/><feColorMatrix values="0 0 0 0 0.352941 0 0 0 0 0.168627 0 0 0 0 0.188235 0 0 0 1 0"/><feBlend in2="shape" result="effect1_innerShadow_18_21307"/><feColorMatrix in="SourceAlpha" result="hardAlpha" values="0 0 0 0 0 0 0 0 0 0 0 0 0 0 0 0 0 0 127 0"/><feOffset dx="-.1" dy=".15"/><feGaussianBlur stdDeviation=".11"/><feComposite in2="hardAlpha" k2="-1" k3="1" operator="arithmetic"/><feColorMatrix values="0 0 0 0 0.670588 0 0 0 0 0.458824 0 0 0 0 0.403922 0 0 0 1 0"/><feBlend in2="effect1_innerShadow_18_21307" result="effect2_innerShadow_18_21307"/></filter><filter id="l" width="5.734" height="2.709" x="13.333" y="6.767" color-interpolation-filters="sRGB" filterUnits="userSpaceOnUse"><feFlood flood-opacity="0" result="BackgroundImageFix"/><feBlend in="SourceGraphic" in2="BackgroundImageFix" result="shape"/><feColorMatrix in="SourceAlpha" result="hardAlpha" values="0 0 0 0 0 0 0 0 0 0 0 0 0 0 0 0 0 0 127 0"/><feOffset dy="-.6"/><feGaussianBlur stdDeviation=".5"/><feComposite in2="hardAlpha" k2="-1" k3="1" operator="arithmetic"/><feColorMatrix values="0 0 0 0 0.388235 0 0 0 0 0.223529 0 0 0 0 0.109804 0 0 0 1 0"/><feBlend in2="shape" result="effect1_innerShadow_18_21307"/></filter><linearGradient id="g" x1="17.477" x2="16.223" y1="3.891" y2="7.367" gradientUnits="userSpaceOnUse"><stop stop-color="#F3C048"/><stop offset="1" stop-color="#E67A41"/></linearGradient><linearGradient id="i" x1="16" x2="16" y1="13.789" y2="26.602" gradientUnits="userSpaceOnUse"><stop stop-color="#A6782C"/><stop offset="1" stop-color="#B95940"/></linearGradient><linearGradient id="k" x1="19.661" x2="13.086" y1="21.875" y2="21.875" gradientUnits="userSpaceOnUse"><stop stop-color="#9D6360"/><stop offset="1" stop-color="#724A4D"/></linearGradient><linearGradient id="m" x1="14.13" x2="19.067" y1="8.422" y2="8.422" gradientUnits="userSpaceOnUse"><stop stop-color="#834B41"/><stop offset="1" stop-color="#735854"/></linearGradient></defs></svg>
